X:154
T:Nye Zuritse Chloptsi
O:klezmer
M:4/4
L:1/8
Q:1/4=160
K:Cm
V:1
"G" GG =BG G2 F2 |GG =BG G2 F2 |"G" GG "Fm" GG "G" =B=B "Cm" cc |"G" =B/c/=B "Fm" G/=B/G "G" G2 G2 :| |:
"Cm" cc2 dc3/2 =B/ (3GGG |"G" =B/c/=B G/=B/G G/G/G "Fm" F2 |"Cm" cc2 dc3/2 =B/ (3GGG |"G" =B/c/=B "Fm" G/=B/G "G" G4
:|"Fm" FF GG GG c2 |"G" =B=B GG G/G/G F2 |"Fm" FF GG GG c2 |"G" =B=B "Fm" G/=B/G "G" G4  |:
"G" GG2 =BG3/2 G/G/G/F |"G" GG2 =BG3/2 G/G/G/F |GG2 dc3/2 =B/G/G/G |1 "G" =B=B G/=B/G G/G/G "Fm" F2 :|2
"G" =B=B G/=B/G G4 ||





